Sweet-Rainbow/icons/vivaldi.svg

<?xml version="1.0" encoding="UTF-8" standalone="no"?>
<!-- Generator: Gravit.io -->

<svg
   xmlns:dc="http://purl.org/dc/elements/1.1/"
   xmlns:cc="http://creativecommons.org/ns#"
   xmlns:rdf="http://www.w3.org/1999/02/22-rdf-syntax-ns#"
   xmlns:svg="http://www.w3.org/2000/svg"
   xmlns="http://www.w3.org/2000/svg"
   xmlns:sodipodi="http://sodipodi.sourceforge.net/DTD/sodipodi-0.dtd"
   xmlns:inkscape="http://www.inkscape.org/namespaces/inkscape"
   style="isolation:isolate"
   viewBox="0 0 48 48"
   width="48"
   height="48"
   version="1.1"
   id="svg16"
   sodipodi:docname="vivaldi.svg"
   inkscape:version="0.92.4 (5da689c313, 2019-01-14)">
  <metadata
     id="metadata22">
    <rdf:RDF>
      <cc:Work
         rdf:about="">
        <dc:format>image/svg+xml</dc:format>
        <dc:type
           rdf:resource="http://purl.org/dc/dcmitype/StillImage" />
        <dc:title></dc:title>
      </cc:Work>
    </rdf:RDF>
  </metadata>
  <defs
     id="defs20" />
  <sodipodi:namedview
     pagecolor="#ffffff"
     bordercolor="#666666"
     borderopacity="1"
     objecttolerance="10"
     gridtolerance="10"
     guidetolerance="10"
     inkscape:pageopacity="0"
     inkscape:pageshadow="2"
     inkscape:window-width="640"
     inkscape:window-height="480"
     id="namedview18"
     showgrid="false"
     inkscape:zoom="39.153656"
     inkscape:cx="18.994082"
     inkscape:cy="24"
     inkscape:current-layer="svg16" />
  <linearGradient
     id="_lgradient_0"
     x1="0"
     y1="0.5"
     x2="1"
     y2="0.5"
     gradientTransform="matrix(-13.665,-41.824,41.824,-13.665,9.921,51.745)"
     gradientUnits="userSpaceOnUse">
    <stop
       offset="0%"
       stop-opacity="1"
       style="stop-color:rgb(211,16,39)"
       id="stop2" />
    <stop
       offset="97.82608695652173%"
       stop-opacity="1"
       style="stop-color:rgb(234,56,77)"
       id="stop4" />
  </linearGradient>
  <linearGradient
     id="_lgradient_1"
     x1="0"
     y1="0.5"
     x2="1"
     y2="0.5"
     gradientTransform="matrix(23.885,0,0,19.856,12.057,17)"
     gradientUnits="userSpaceOnUse">
    <stop
       offset="0%"
       stop-opacity="1"
       style="stop-color:rgb(211,16,39)"
       id="stop9" />
    <stop
       offset="97.82608695652173%"
       stop-opacity="1"
       style="stop-color:rgb(234,56,77)"
       id="stop11" />
  </linearGradient>
  <g
     id="g831"
     transform="matrix(1.0909472,0,0,1.0909472,-2.1827328,-1.6438584)">
    <path
       id="path7"
       d="m 6.89,29.59 c 0,0 0,0 0,0 v 0 0 c 0,0 0,0 0,0 1.724,5.276 5.81,9.475 11.032,11.356 v 0 c 1.038,0.369 1.579,1.512 1.207,2.551 v 0 c -0.371,1.039 -1.517,1.578 -2.557,1.204 v 0 C 10.185,42.411 5.197,37.287 3.088,30.833 c 0,0 0,0 0,0 v 0 C 1.277,25.291 1.743,19.247 4.377,14.042 7.023,8.843 11.626,4.899 17.167,3.088 v 0 c 5.542,-1.811 11.586,-1.345 16.791,1.289 5.199,2.646 9.143,7.249 10.954,12.79 1.811,5.542 1.345,11.586 -1.289,16.791 -2.646,5.199 -7.239,9.14 -12.79,10.954 0,0 0,0 0,0 v 0 0 c -1.05,0.343 -2.18,-0.231 -2.523,-1.28 v 0 c -0.342,-1.049 0.231,-2.179 1.28,-2.522 v 0 0 c 4.544,-1.485 8.307,-4.713 10.464,-8.963 2.154,-4.26 2.537,-9.203 1.056,-13.737 C 39.628,13.876 36.4,10.112 32.147,7.946 27.887,5.792 22.944,5.409 18.41,6.89 v 0 C 13.876,8.372 10.112,11.6 7.946,15.853 5.792,20.113 5.409,25.056 6.89,29.59 Z"
       style="fill:url(#_lgradient_0)"
       inkscape:connector-curvature="0" />
    <path
       id="path14"
       d="m 31.03,18.793 v 0 c 0.68,-0.989 2.056,-1.256 3.072,-0.594 v 0 c 1.016,0.662 1.289,2.003 0.61,2.993 v 0 l -8.241,12.051 c -1.364,1.994 -3.578,1.994 -4.942,0 L 13.288,21.192 v 0 c -0.679,-0.99 -0.406,-2.331 0.61,-2.993 v 0 c 1.016,-0.662 2.392,-0.395 3.072,0.594 v 0 q 1.775,10.263 7.03,10.263 5.255,0 7.03,-10.263 z"
       style="fill:url(#_lgradient_1)"
       inkscape:connector-curvature="0" />
  </g>
</svg>

<?xml version="1.0" standalone="no"?><!-- Generator: Gravit.io --><svg xmlns="http://www.w3.org/2000/svg" xmlns:xlink="http://www.w3.org/1999/xlink" style="isolation:isolate" viewBox="0 0 48 48" width="48px" height="48px"><linearGradient id="_lgradient_0" x1="0" y1="0.5" x2="1" y2="0.5" gradientTransform="matrix(-13.665,-41.824,41.824,-13.665,9.921,51.745)" gradientUnits="userSpaceOnUse"><stop offset="0%" stop-opacity="1" style="stop-color:rgb(211,16,39)"/><stop offset="97.82608695652173%" stop-opacity="1" style="stop-color:rgb(234,56,77)"/></linearGradient><path d=" M 6.89 29.59 C 6.89 29.59 6.89 29.59 6.89 29.59 L 6.89 29.59 L 6.89 29.59 C 6.89 29.59 6.89 29.59 6.89 29.59 C 8.614 34.866 12.7 39.065 17.922 40.946 L 17.922 40.946 C 18.96 41.315 19.501 42.458 19.129 43.497 L 19.129 43.497 C 18.758 44.536 17.612 45.075 16.572 44.701 L 16.572 44.701 C 10.185 42.411 5.197 37.287 3.088 30.833 C 3.088 30.833 3.088 30.833 3.088 30.833 L 3.088 30.833 C 1.277 25.291 1.743 19.247 4.377 14.042 C 7.023 8.843 11.626 4.899 17.167 3.088 L 17.167 3.088 C 22.709 1.277 28.753 1.743 33.958 4.377 C 39.157 7.023 43.101 11.626 44.912 17.167 C 46.723 22.709 46.257 28.753 43.623 33.958 C 40.977 39.157 36.384 43.098 30.833 44.912 C 30.833 44.912 30.833 44.912 30.833 44.912 L 30.833 44.912 L 30.833 44.912 C 29.783 45.255 28.653 44.681 28.31 43.632 L 28.31 43.632 C 27.968 42.583 28.541 41.453 29.59 41.11 L 29.59 41.11 L 29.59 41.11 C 34.134 39.625 37.897 36.397 40.054 32.147 C 42.208 27.887 42.591 22.944 41.11 18.41 C 39.628 13.876 36.4 10.112 32.147 7.946 C 27.887 5.792 22.944 5.409 18.41 6.89 L 18.41 6.89 C 13.876 8.372 10.112 11.6 7.946 15.853 C 5.792 20.113 5.409 25.056 6.89 29.59 Z " fill="url(#_lgradient_0)"/><linearGradient id="_lgradient_1" x1="0" y1="0.5" x2="1" y2="0.5" gradientTransform="matrix(23.885,0,0,19.856,12.057,17)" gradientUnits="userSpaceOnUse"><stop offset="0%" stop-opacity="1" style="stop-color:rgb(211,16,39)"/><stop offset="97.82608695652173%" stop-opacity="1" style="stop-color:rgb(234,56,77)"/></linearGradient><path d=" M 31.03 18.793 L 31.03 18.793 C 31.71 17.804 33.086 17.537 34.102 18.199 L 34.102 18.199 C 35.118 18.861 35.391 20.202 34.712 21.192 L 34.712 21.192 L 26.471 33.243 C 25.107 35.237 22.893 35.237 21.529 33.243 L 13.288 21.192 L 13.288 21.192 C 12.609 20.202 12.882 18.861 13.898 18.199 L 13.898 18.199 C 14.914 17.537 16.29 17.804 16.97 18.793 L 16.97 18.793 Q 18.745 29.056 24 29.056 Q 29.255 29.056 31.03 18.793 Z " fill="url(#_lgradient_1)"/></svg>
